X: 9977
T: Devil's Dream, The
R: hornpipe
M: 4/4
K: Amajor
"A" a2 eg a2 eg|"A" a2 ea fedc|"Bm" dfBf dfBf|"Bm" dfBa "E" gabg|
"A" a2 eg a2 eg|"A" a2 ea fedc|"D" defd "A" ecBA|"E" E2 G2 "A" A2:|
"A" ceAe "E" ceAe|"A" ceag fedc|"Bm" dfBf dfBf|"Bm" dfba "E" gfed|
"A" ceAe "E" ceAe|"A" ceag fedc|"D" defe "A" ecBA|"E" E2 G2 "A" A2:|

